X:1
T:Title
%%score { 1 | ( 2 3 ) }
L:1/8
M:6/8
K:Ab
V:1 treble nm="Grand Piano"
V:2 bass 
V:3 bass 
V:1
 z3 z2[Q:1/4=100] [CE] | [CE]3 [CE]2 [CE] | [DF] [FA]2- [FA] z [EA] | [EB]3 [EA]2 [EB] | %4
 [Ec]3- [Ec]2 c | [Fd]3 [Fd]2 [Fd] | d c2- c z [Ec] | c B2 B2 A | B3- B2 B | c3 B2 A | %10
 [FA] [FA]2- [FA] z [FA] | [FA]3 [EG]2 [DF] | [CE]3- [CE]2 [CE] | [CE]3 [CE]2 [CE] | %14
 [DF] [FA]2- [FA] z [FB] | c3 B2 B |[M:5/8] [CA]-[CA]- [CA]3 |] %17
V:2
 z3 z2 [A,,A,] | [A,,A,]3 [A,,A,]2 [A,,A,] | [D,A,] [D,A,]2- [D,A,] z [C,A,] | %3
 [E,G,]3 [C,A,]2 [B,,G,] | [A,,A,]3- [A,,A,]2 [A,E] | [D,A,]3 [D,A,]2 [D,A,] | %6
 [A,F] [A,E]2- [A,E] z[K:bass] [A,,A,] | [E,E]3 z3 | [E,G,E]3- [E,G,E]2 [E,G,E] | %9
 [A,E]3 [E,G,D]2 [F,A,C] | [D,D] [D,D]2- [D,D] z [D,D] | [D,D]3 [D,A,]2 [D,A,] | %12
 [A,,A,]3- [A,,A,]2 [A,,A,] | [A,,A,]3 [A,,A,]2 [A,,A,] | [D,A,] [D,D]2- [D,D] z [D,B,] | %15
 [E,A,E]3 [E,G,D]2 [E,G,D] |[M:5/8] [A,,A,]-[A,,A,]- [A,,A,]3 |] %17
V:3
 x6 | x6 | x6 | x6 | x6 | x6 | x5[K:bass] x | A, G,2 [E,G,E]2 [E,A,C] | x6 | x6 | x6 | x6 | x6 | %13
 x6 | x6 | x6 |[M:5/8] x5 |] %17

